X: 07024
T: CUZ'S JIG
C: Bob McQuillen 17 Mar 90
B: Bob's Note Book 7 #24
%R: jig
Z: 2020 John Chambers <jc:trillian.mit.edu>
M: 6/8
L: 1/8
K: D
FE \
| DFA AFA | dce dAF | GAB AFA | dAF EFE |
| DFA AFA | dce dAF | GAB AdF | EDE D :|
|: FG \
| AFA def | ede fdB | ABA AFA | def edB |
| AFA def | ede fdB | AFA BAB | d>ed d :|
%%begintext align
%% Chris Brennan Hagy is
%% Johnny Brennan's cousin ("CUZ") from Wyndmoor,
%% PA., just outside Philly. Like John, she's a fiddler, and I just
%% thought she needed a new tune for her fiddle - so here
%% it is, Chris, and I hope it sounds OK on your fiddle!
%% Much love to you -
%%endtext

%%sep 1 1 500

%%sep 1 1 500

